static/assets/template/assets/img/icons/essential/detailed/Vegan.svg

<svg height="145" viewBox="0 0 150 145" width="150" xmlns="http://www.w3.org/2000/svg"><g fill="none" fill-rule="evenodd" transform="translate(2 2)"><path d="m117.6 20.7v-7.2c0-8-6.9-14.2-14.9-13.4l-91.6 9.4c-6.1.6-10.8 5.8-10.8 11.9s4.6 11.3 10.8 11.9l91.6 9.4c4 .4 7.7-1 10.4-3.4" fill-rule="nonzero"/><path d="m117.6 19.1v5.9l-.1 9c0 3.2-4.2 6.1-4.2 6.1-2.6 2-6.2 3.1-10.1 2.8l-88.8-7.6c-3-.3-5.6-1.4-7.4-3.2-1.9-1.7-3-4-3-6.5 0-.4 0-.7.1-1 .6-4.5 4.8-8.1 10.3-8.6l88.8-7.6c5.5-.5 10.6 2 12.9 5.9 1 1.3 1.5 3 1.5 4.8z" fill="#bad8ff" fill-rule="nonzero"/><path d="m116.6 22.8c.2 3.2-3.9 6.3-3.9 6.3-2.5 2.1-6.1 3.4-10 3.3l-89-3c-3-.1-5.6-1.1-7.6-2.8-.8-.7-1.5-1.4-2-2.2.6-4.5 4.8-8.1 10.3-8.6l88.8-7.6c5.5-.5 10.6 2 12.9 5.9z" fill-rule="nonzero"/><g stroke-linecap="round" stroke-linejoin="round" stroke-width="3"><path d="m17.1 8.9-6 .6c-6.1.6-10.8 5.8-10.8 11.9s4.6 11.3 10.8 11.9l91.6 9.4c4 .4 7.7-1 10.4-3.4"/><path d="m25.1 8.1h-.2"/><path d="m117.6 20.7v-7.2c0-8-6.9-14.2-14.9-13.4l-70 7.2"/><path d="m51.4 6.8v11.6"/><path d="m25.9 20.5v11.6"/><path d="m70.6 25.6v11.6"/><path d="m88 2.1v11.6"/><path d="m117.5 21.4c10.7.1 28.9-.3 28.9-.3"/><path d="m133.3 19.3 3.7-15.6"/><path d="m131.9 22.3 6.9 12.7"/><path d="m74.5 75.5c-2.2 1.2-4.7 1.9-7.4 1.9h-2.7c-8.7 0-15.7-7-15.7-15.7v-24.5"/><path d="m82.8 40.7v20.9c0 2.7-.7 5.2-1.9 7.5"/><path d="m65.7 39v102.3"/></g></g></svg>

<?xml version="1.0" encoding="UTF-8"?>
<svg width="150px" height="145px" viewBox="0 0 150 145" version="1.1" xmlns="http://www.w3.org/2000/svg" xmlns:xlink="http://www.w3.org/1999/xlink">
    <!-- Generator: Sketch 51.2 (57519) - http://www.bohemiancoding.com/sketch -->
    <title>Vegan</title>
    <desc>Created with Sketch.</desc>
    <defs></defs>
    <g id="Page-1" stroke="none" stroke-width="1" fill="none" fill-rule="evenodd">
        <g id="Vegan" transform="translate(2.000000, 2.000000)">
            <path d="M117.6,20.7 L117.6,13.5 C117.6,5.5 110.7,-0.7 102.7,0.1 L11.1,9.5 C5,10.1 0.3,15.3 0.3,21.4 C0.3,27.5 4.9,32.7 11.1,33.3 L102.7,42.7 C106.7,43.1 110.4,41.7 113.1,39.3" id="Shape" class="fill-neutral" fill-rule="nonzero"></path>
            <path d="M117.6,19.1 L117.6,25 L117.5,34 C117.5,37.2 113.3,40.1 113.3,40.1 C110.7,42.1 107.1,43.2 103.2,42.9 L14.4,35.3 C11.4,35 8.8,33.9 7,32.1 C5.1,30.4 4,28.1 4,25.6 C4,25.2 4,24.9 4.1,24.6 C4.7,20.1 8.9,16.5 14.4,16 L103.2,8.4 C108.7,7.9 113.8,10.4 116.1,14.3 C117.1,15.6 117.6,17.3 117.6,19.1 Z" id="Shape" fill="#BAD8FF" fill-rule="nonzero"></path>
            <path d="M116.6,22.8 C116.8,26 112.7,29.1 112.7,29.1 C110.2,31.2 106.6,32.5 102.7,32.4 L13.7,29.4 C10.7,29.3 8.1,28.3 6.1,26.6 C5.3,25.9 4.6,25.2 4.1,24.4 C4.7,19.9 8.9,16.3 14.4,15.8 L103.2,8.2 C108.7,7.7 113.8,10.2 116.1,14.1 L116.6,22.8 Z" id="Shape" class="fill-primary-100" fill-rule="nonzero"></path>
            <path d="M17.1,8.9 L11.1,9.5 C5,10.1 0.3,15.3 0.3,21.4 C0.3,27.5 4.9,32.7 11.1,33.3 L102.7,42.7 C106.7,43.1 110.4,41.7 113.1,39.3" id="Shape" class="stroke-primary" stroke-width="3" stroke-linecap="round" stroke-linejoin="round"></path>
            <path d="M25.1,8.1 L24.9,8.1" id="Shape" class="stroke-primary" stroke-width="3" stroke-linecap="round" stroke-linejoin="round"></path>
            <path d="M117.6,20.7 L117.6,13.5 C117.6,5.5 110.7,-0.7 102.7,0.1 L32.7,7.3" id="Shape" class="stroke-primary" stroke-width="3" stroke-linecap="round" stroke-linejoin="round"></path>
            <path d="M51.4,6.8 L51.4,18.4" id="Shape" class="stroke-primary" stroke-width="3" stroke-linecap="round" stroke-linejoin="round"></path>
            <path d="M25.9,20.5 L25.9,32.1" id="Shape" class="stroke-primary" stroke-width="3" stroke-linecap="round" stroke-linejoin="round"></path>
            <path d="M70.6,25.6 L70.6,37.2" id="Shape" class="stroke-primary" stroke-width="3" stroke-linecap="round" stroke-linejoin="round"></path>
            <path d="M88,2.1 L88,13.7" id="Shape" class="stroke-primary" stroke-width="3" stroke-linecap="round" stroke-linejoin="round"></path>
            <path d="M117.5,21.4 C128.2,21.5 146.4,21.1 146.4,21.1" id="Shape" class="stroke-primary" stroke-width="3" stroke-linecap="round" stroke-linejoin="round"></path>
            <path d="M133.3,19.3 L137,3.7" id="Shape" class="stroke-primary" stroke-width="3" stroke-linecap="round" stroke-linejoin="round"></path>
            <path d="M131.9,22.3 L138.8,35" id="Shape" class="stroke-primary" stroke-width="3" stroke-linecap="round" stroke-linejoin="round"></path>
            <path d="M74.5,75.5 C72.3,76.7 69.8,77.4 67.1,77.4 L64.4,77.4 C55.7,77.4 48.7,70.4 48.7,61.7 L48.7,37.2" id="Shape" class="stroke-primary" stroke-width="3" stroke-linecap="round" stroke-linejoin="round"></path>
            <path d="M82.8,40.7 L82.8,61.6 C82.8,64.3 82.1,66.8 80.9,69.1" id="Shape" class="stroke-primary" stroke-width="3" stroke-linecap="round" stroke-linejoin="round"></path>
            <path d="M65.7,39 L65.7,141.3" id="Shape" class="stroke-primary" stroke-width="3" stroke-linecap="round" stroke-linejoin="round"></path>
        </g>
    </g>
</svg>
